X: 383
M: 2/2
L: 1/8
K: G
!segno!dedc |\
g2d2 b2a2 | g4 g2d2 |\
g2d2 b2a2 | g4 f4 |\
f4 f2ed | e2e2 g4 |
f2ef gfef | d4 !segno!y |]| "1.F."g2d2 |\
g2d2 b2a2 | g4 g2d2 | g2d2 b2a2 | g4 e4 |\
e4 e2dc | d2d2 g4 |\
d2cd edcB | A4 !segno!y |]

